svg/black/nav.svg

<svg xmlns="http://www.w3.org/2000/svg" width="32" height="32" viewBox="0 0 32 32">
  <path fill-rule="evenodd" d="M16.5238095,22 L21.320802,22 L27,10 L22.2030075,10 L18.7595119,17.2760181 L14.8145363,10 L10.0175439,10 L5,22 L9.79699248,22 L12.7258937,14.9952153 L16.5238095,22 Z M16,32 C7.163444,32 0,24.836556 0,16 C0,7.163444 7.163444,0 16,0 C24.836556,0 32,7.163444 32,16 C32,24.836556 24.836556,32 16,32 Z"/>
</svg>

<svg xmlns="http://www.w3.org/2000/svg" width="32" height="32"><path fill-rule="evenodd" d="M16.524 22h4.797L27 10h-4.797l-3.443 7.276L14.815 10h-4.797L5 22h4.797l2.929-7.005L16.524 22zM16 32C7.163 32 0 24.837 0 16S7.163 0 16 0s16 7.163 16 16-7.163 16-16 16z"/></svg>
